components/Common/Svg/svgs/webDevelopment.svg

<svg width="40" height="40" viewBox="0 0 40 40" fill="none" xmlns="http://www.w3.org/2000/svg">
<path d="M12.5 28.3333H4.18512C3.5306 28.3333 3 27.811 3 27.1667V6.16667C3 5.52234 3.5306 5.00001 4.18512 5.00001H30.2577C30.9122 5.00001 31.4428 5.52234 31.4428 6.16667V12" stroke="#161616" stroke-width="1.90476" stroke-linecap="round" stroke-linejoin="round"/>
<path d="M25.82 29.469C28.4135 29.469 30.5159 27.3157 30.5159 24.6595C30.5159 22.0033 28.4135 19.85 25.82 19.85C23.2265 19.85 21.124 22.0033 21.124 24.6595C21.124 27.3157 23.2265 29.469 25.82 29.469Z" stroke="#161616" stroke-width="1.90476" stroke-linecap="round" stroke-linejoin="round"/>
<path d="M25.3229 16.2252L23.4978 14.8244C23.3999 14.749 23.2859 14.6985 23.1652 14.6771C23.0444 14.6556 22.9204 14.6639 22.8034 14.7011C22.2382 14.8823 21.6898 15.1146 21.1647 15.3952C21.056 15.4535 20.9625 15.5375 20.8917 15.6402C20.821 15.7429 20.7751 15.8613 20.7579 15.9857L20.4353 18.2977C20.3123 18.4093 20.1919 18.5253 20.0741 18.6459C19.9563 18.7664 19.8429 18.8897 19.7339 19.0157L19.7338 19.0157L17.4757 19.3463C17.3544 19.3639 17.2388 19.4107 17.1387 19.4829C17.0385 19.5551 16.9565 19.6507 16.8995 19.7617C16.625 20.299 16.3976 20.8602 16.2202 21.4387C16.1836 21.5586 16.1755 21.6857 16.1964 21.8095C16.2173 21.9333 16.2667 22.0503 16.3404 22.1507L17.7093 24.0191C17.6994 24.187 17.6944 24.3562 17.6944 24.5267C17.6944 24.6972 17.6994 24.8665 17.7093 25.0345L17.7093 25.0346L16.3409 26.9028C16.2672 27.0031 16.2179 27.1198 16.1969 27.2434C16.176 27.367 16.184 27.4939 16.2204 27.6137C16.3974 28.1923 16.6243 28.7537 16.8984 29.2912C16.9554 29.4024 17.0375 29.4982 17.1378 29.5706C17.2381 29.6431 17.3538 29.69 17.4753 29.7076L19.7338 30.0379C19.8428 30.1638 19.9562 30.287 20.0739 30.4076C20.1917 30.5282 20.3122 30.6443 20.4352 30.7559L20.4353 30.756L20.7582 33.0675C20.7754 33.1917 20.8211 33.31 20.8917 33.4125C20.9622 33.5151 21.0556 33.599 21.164 33.6574C21.6889 33.9384 22.2371 34.1711 22.8022 34.3528C22.9194 34.3902 23.0435 34.3985 23.1645 34.3771C23.2854 34.3557 23.3997 34.3052 23.4978 34.2297L25.3229 32.8284C25.487 32.8385 25.6523 32.8436 25.8188 32.8437C25.9854 32.8437 26.1508 32.8386 26.3149 32.8284L26.3149 32.8284L28.14 34.2292C28.2379 34.3046 28.352 34.3551 28.4727 34.3766C28.5934 34.398 28.7174 34.3898 28.8344 34.3525C29.3997 34.1713 29.9481 33.9391 30.4731 33.6585C30.5818 33.6001 30.6754 33.5161 30.7461 33.4135C30.8169 33.3108 30.8627 33.1924 30.8799 33.068L31.2026 30.756C31.3256 30.6444 31.446 30.5283 31.5638 30.4078C31.6816 30.2872 31.795 30.1639 31.904 30.0379L31.9041 30.0379L34.1622 29.7073C34.2835 29.6898 34.399 29.643 34.4992 29.5707C34.5994 29.4985 34.6814 29.4029 34.7384 29.2919C35.0129 28.7546 35.2402 28.1935 35.4177 27.615C35.4542 27.495 35.4624 27.3679 35.4415 27.2441C35.4206 27.1203 35.3712 27.0034 35.2975 26.9029L33.9286 25.0346C33.9385 24.8667 33.9434 24.6974 33.9435 24.5269C33.9435 24.3564 33.9385 24.1871 33.9286 24.0191L33.9286 24.0191L35.297 22.1508C35.3706 22.0506 35.42 21.9338 35.4409 21.8102C35.4619 21.6866 35.4538 21.5597 35.4174 21.4399C35.2404 20.8613 35.0136 20.3 34.7395 19.7625C34.6824 19.6512 34.6004 19.5554 34.5001 19.483C34.3998 19.4106 34.2841 19.3636 34.1626 19.346L31.9041 19.0157C31.795 18.8899 31.6817 18.7666 31.5639 18.646C31.4461 18.5254 31.3257 18.4093 31.2026 18.2977L31.2026 18.2977L30.8797 15.9861C30.8625 15.8619 30.8168 15.7436 30.7462 15.6411C30.6756 15.5385 30.5823 15.4546 30.4738 15.3962C29.949 15.1152 29.4008 14.8825 28.8357 14.7008C28.7185 14.6634 28.5943 14.6551 28.4734 14.6765C28.3524 14.6979 28.2382 14.7484 28.1401 14.8239L26.3149 16.2252C26.1509 16.2151 25.9856 16.21 25.819 16.21C25.6525 16.21 25.4871 16.2151 25.323 16.2252L25.3229 16.2252Z" stroke="#161616" stroke-width="1.90476" stroke-linecap="round" stroke-linejoin="round"/>
</svg>

<svg width="40" height="40" viewBox="0 0 40 40" fill="none" xmlns="http://www.w3.org/2000/svg"><path d="M12.5 28.333H4.185A1.176 1.176 0 0 1 3 27.167v-21C3 5.522 3.53 5 4.185 5h26.073c.654 0 1.185.522 1.185 1.167V12M25.82 29.469c2.593 0 4.696-2.153 4.696-4.81 0-2.656-2.102-4.809-4.696-4.809-2.593 0-4.696 2.153-4.696 4.81 0 2.656 2.103 4.809 4.696 4.809Z" stroke="#161616" stroke-width="1.905" stroke-linecap="round" stroke-linejoin="round"/><path d="m25.323 16.225-1.825-1.4a.764.764 0 0 0-.695-.124 9.871 9.871 0 0 0-1.638.694.803.803 0 0 0-.407.59l-.323 2.313a8.318 8.318 0 0 0-.701.718h0l-2.258.33a.764.764 0 0 0-.576.416 10.367 10.367 0 0 0-.68 1.677.81.81 0 0 0 .12.712l1.37 1.868a8.622 8.622 0 0 0 0 1.016h0l-1.37 1.868a.802.802 0 0 0-.12.71c.177.58.404 1.14.678 1.678.057.111.14.207.24.28.1.072.216.119.337.137l2.259.33a8.42 8.42 0 0 0 .701.718h0l.323 2.312a.802.802 0 0 0 .406.59 9.877 9.877 0 0 0 1.638.695.757.757 0 0 0 .696-.123l1.825-1.402a8.15 8.15 0 0 0 .992 0h0l1.825 1.401a.765.765 0 0 0 .694.123 9.863 9.863 0 0 0 1.64-.694.78.78 0 0 0 .406-.59l.323-2.312a8.378 8.378 0 0 0 .701-.718h0l2.258-.33a.762.762 0 0 0 .337-.137.786.786 0 0 0 .24-.28c.274-.536.501-1.098.679-1.676a.811.811 0 0 0-.12-.712l-1.37-1.868a8.713 8.713 0 0 0 0-1.016h0l1.369-1.868a.801.801 0 0 0 .12-.711 10.369 10.369 0 0 0-.678-1.678.788.788 0 0 0-.239-.279.764.764 0 0 0-.337-.137l-2.259-.33a8.48 8.48 0 0 0-.701-.718h0l-.323-2.312a.802.802 0 0 0-.406-.59 9.872 9.872 0 0 0-1.638-.695.757.757 0 0 0-.696.123l-1.825 1.401a8.066 8.066 0 0 0-.992 0h0Z" stroke="#161616" stroke-width="1.905" stroke-linecap="round" stroke-linejoin="round"/></svg>
